public/img/assets/icons/weather-conditions/snow.svg

<svg width="120" height="120" viewBox="0 0 120 120" fill="none" xmlns="http://www.w3.org/2000/svg">
<path d="M82.9375 39.8C82.8496 39.8 82.7764 39.8294 82.7031 39.8294C82.8643 39.0656 82.9375 38.2725 82.9375 37.45C82.9375 30.9581 77.6934 25.7 71.2188 25.7C67.6152 25.7 64.4365 27.3597 62.2832 29.93C59.5586 24.6425 54.124 21 47.7813 21C38.7139 21 31.375 28.3584 31.375 37.45C31.375 38.5222 31.4922 39.5503 31.6826 40.5638C26.0723 42.4144 22 47.6578 22 53.9C22 61.6844 28.2988 68 36.0625 68H82.9375C90.7012 68 97 61.6844 97 53.9C97 46.1156 90.7012 39.8 82.9375 39.8Z" fill="#3FD5FE"/>
<rect x="55.8407" y="60" width="3.04385" height="13" rx="1" fill="#6A9CFF"/>
<rect width="3.05509" height="12.9523" rx="1" transform="matrix(0.498161 -0.867085 0.86496 0.501841 51 64.5745)" fill="#6A9CFF"/>
<rect width="3.05509" height="12.9523" rx="1" transform="matrix(-0.498161 -0.867085 -0.86496 0.501841 64 64.1784)" fill="#6A9CFF"/>
<path fill-rule="evenodd" clip-rule="evenodd" d="M62.9744 68C62.9397 67.9732 62.9028 67.9484 62.8639 67.9258L60.2025 66.3817L63.1387 64.6782C63.615 64.4018 63.7783 63.7925 63.504 63.315L62.9784 62.4002C62.7024 61.9199 62.0886 61.7554 61.6094 62.0334L58.8845 63.6144V61C58.8845 60.4477 58.4368 60 57.8845 60H56.8406C56.2884 60 55.8406 60.4477 55.8406 61V63.851L53.3906 62.4295C52.9114 62.1515 52.2976 62.316 52.0216 62.7963L51.496 63.7111C51.2217 64.1885 51.385 64.7979 51.8613 65.0742L54.1148 66.3817L52.1361 67.5297C51.9427 67.6419 51.8009 67.8091 51.7191 68H62.9744Z" fill="#3377FF"/>
<rect x="39.8407" y="77" width="3.04385" height="13" rx="1" fill="#6A9CFF"/>
<rect width="3.05509" height="12.9523" rx="1" transform="matrix(0.498161 -0.867085 0.86496 0.501841 35 81.5745)" fill="#6A9CFF"/>
<rect width="3.05509" height="12.9523" rx="1" transform="matrix(-0.498161 -0.867085 -0.86496 0.501841 48 81.1784)" fill="#6A9CFF"/>
<rect x="71.8407" y="77" width="3.04385" height="13" rx="1" fill="#6A9CFF"/>
<rect width="3.05509" height="12.9523" rx="1" transform="matrix(0.498161 -0.867085 0.86496 0.501841 67 81.5745)" fill="#6A9CFF"/>
<rect width="3.05509" height="12.9523" rx="1" transform="matrix(-0.498161 -0.867085 -0.86496 0.501841 80 81.1784)" fill="#6A9CFF"/>
</svg>

<svg width="120" height="120" fill="none" xmlns="http://www.w3.org/2000/svg"><path d="M82.938 39.8c-.088 0-.162.03-.235.03.161-.764.234-1.557.234-2.38 0-6.492-5.244-11.75-11.718-11.75-3.604 0-6.782 1.66-8.936 4.23C59.56 24.642 54.124 21 47.781 21c-9.067 0-16.406 7.358-16.406 16.45 0 1.072.117 2.1.308 3.114C26.073 42.414 22 47.658 22 53.9 22 61.684 28.299 68 36.063 68h46.874C90.701 68 97 61.684 97 53.9s-6.299-14.1-14.063-14.1Z" fill="#3FD5FE"/><rect x="55.841" y="60" width="3.044" height="13" rx="1" fill="#6A9CFF"/><rect width="3.055" height="12.952" rx="1" transform="matrix(.49816 -.86708 .86496 .50184 51 64.575)" fill="#6A9CFF"/><rect width="3.055" height="12.952" rx="1" transform="matrix(-.49816 -.86708 -.86496 .50184 64 64.178)" fill="#6A9CFF"/><path fill-rule="evenodd" clip-rule="evenodd" d="M62.974 68a1.014 1.014 0 0 0-.11-.074l-2.661-1.544 2.936-1.704a1 1 0 0 0 .365-1.363l-.526-.915a1 1 0 0 0-1.369-.367l-2.724 1.581V61a1 1 0 0 0-1-1H56.84a1 1 0 0 0-1 1v2.851l-2.45-1.422a1 1 0 0 0-1.37.367l-.525.915a1 1 0 0 0 .365 1.363l2.254 1.308-1.979 1.148a.995.995 0 0 0-.417.47h11.255Z" fill="#37F"/><rect x="39.841" y="77" width="3.044" height="13" rx="1" fill="#6A9CFF"/><rect width="3.055" height="12.952" rx="1" transform="matrix(.49816 -.86708 .86496 .50184 35 81.575)" fill="#6A9CFF"/><rect width="3.055" height="12.952" rx="1" transform="matrix(-.49816 -.86708 -.86496 .50184 48 81.178)" fill="#6A9CFF"/><rect x="71.841" y="77" width="3.044" height="13" rx="1" fill="#6A9CFF"/><rect width="3.055" height="12.952" rx="1" transform="matrix(.49816 -.86708 .86496 .50184 67 81.575)" fill="#6A9CFF"/><rect width="3.055" height="12.952" rx="1" transform="matrix(-.49816 -.86708 -.86496 .50184 80 81.178)" fill="#6A9CFF"/></svg>
